_/img/facebook.svg

<svg width="16" height="16" viewBox="0 0 16 16" fill="none" xmlns="http://www.w3.org/2000/svg">
<path d="M8.91158 4.82695V3.5531C8.91158 2.93202 9.32353 2.78627 9.61505 2.78627H11.4086V0.0484503L8.94328 0.0357628C6.20546 0.0357628 5.58437 2.07645 5.58437 3.38201V4.82701H4V8.01474H5.59705V16H8.79116V8.01474H11.1614L11.2755 6.75989L11.453 4.8206H8.91158V4.82695Z" fill="#333333"/>
</svg>

<svg width="16" height="16" viewBox="0 0 16 16" fill="none" xmlns="http://www.w3.org/2000/svg"><path d="M8.912 4.827V3.553c0-.621.412-.767.703-.767h1.794V.048L8.943.036c-2.738 0-3.359 2.04-3.359 3.346v1.445H4v3.188h1.597V16h3.194V8.015h2.37l.114-1.255.178-1.94H8.912v.007z" fill="#333"/></svg>
